icon-svg/pool-salinty.svg

<svg xmlns="http://www.w3.org/2000/svg" fill="#44739e" viewBox="0 0 24 24"><path d="M18.045 13.71A36.19 36.19 0 0 0 11.991 2a36.31 36.31 0 0 0-6.033 11.668 6.17 6.17 0 0 0 .095 3.885l.015.04a7.01 7.01 0 0 0 1.118 2 6.175 6.175 0 0 0 4.123 2.366 5.7 5.7 0 0 0 .726.037 6.153 6.153 0 0 0 4.806-2.418l.021.022a7.6 7.6 0 0 0 1.119-2.115 6.175 6.175 0 0 0 .064-3.775m-4.786-4.253a.421.421 0 1 1-.421-.422.421.421 0 0 1 .421.422m1.608 4.677a.421.421 0 0 1-.411-.328.4.4 0 0 1-.015-.112.421.421 0 0 1 .832-.093.42.42 0 0 1 .015.112.42.42 0 0 1-.421.421m.421 2.066a.443.443 0 1 1-.015-.112.42.42 0 0 1 .015.112m-.765-1.323a.422.422 0 1 1-.421-.421.421.421 0 0 1 .421.421m-3.366-.1a.421.421 0 1 1-.842 0v-.019a.421.421 0 1 1 .842 0zM8.4 13.52a.422.422 0 1 1 .42-.42.422.422 0 0 1-.42.42m.392 1.913a.422.422 0 1 1-.421-.422.422.422 0 0 1 .419.422Zm.426-1.657a.421.421 0 1 1-.418.424.42.42 0 0 1 .416-.424Zm.03-1.492a.422.422 0 1 1 .421-.421.422.422 0 0 1-.423.421zm.62.456a.421.421 0 1 1-.422.421.421.421 0 0 1 .42-.421zm0 2.761h.049a.422.422 0 1 1 0 .843h-.051a.422.422 0 1 1 0-.843zm.922-5.3a.422.422 0 1 1 .421-.422.422.422 0 0 1-.423.421Zm.533 1.588a.421.421 0 1 1-.421-.421.42.42 0 0 1 .419.423zm-.168 1.782a.421.421 0 0 1 .826-.115.4.4 0 0 1 .021.13.421.421 0 0 1-.827.115.43.43 0 0 1-.022-.128zm.426-2.949a.421.421 0 1 1 .421.421.42.42 0 0 1-.423-.419zM12 14.983a.422.422 0 1 1-.421.422.422.422 0 0 1 .421-.422m.047-2.369a.42.42 0 0 1-.047-.193.422.422 0 0 1 .8-.183.42.42 0 0 1 .047.193.422.422 0 0 1-.8.183m.8 1.193a.416.416 0 0 1 .18.04.421.421 0 0 1-.143.818.43.43 0 1 1-.037-.858m.421 1.807a.421.421 0 1 1-.421.421.421.421 0 0 1 .412-.421zM14.015 17a.422.422 0 1 1-.421.422.422.422 0 0 1 .421-.422m-.335-3.51a.422.422 0 1 1 .422-.422.422.422 0 0 1-.422.424zm-.421-1.807a.422.422 0 1 1 .421-.421.421.421 0 0 1-.421.423zm-.248-4.319a.421.421 0 1 1-.421-.421.42.42 0 0 1 .421.423Zm-.842-2.228a.421.421 0 1 1-.422.421.421.421 0 0 1 .422-.419zm0 3.386a.422.422 0 1 1-.422-.422.422.422 0 0 1 .422.424Zm-.848-2.15a.421.421 0 1 1-.421.428.421.421 0 0 1 .421-.426Zm-.955 1.179a.422.422 0 1 1-.421.421.422.422 0 0 1 .421-.419Zm0 3.386a.421.421 0 1 1-.421-.421.42.42 0 0 1 .421.423zm-.979-2.374a.421.421 0 1 1-.37.467.421.421 0 0 1 .37-.467m-.7 1.325a.421.421 0 1 1-.37.467.421.421 0 0 1 .371-.467Zm-.812 1.282a.421.421 0 1 1-.37.467.421.421 0 0 1 .37-.467m-.432 2.687a.421.421 0 1 1-.421.421.421.421 0 0 1 .421-.421m-.451 2.755a.422.422 0 1 1 .422.422.422.422 0 0 1-.422-.422m1.121 2.147a.421.421 0 1 1 .421-.421.421.421 0 0 1-.421.421m.534-1.6a.421.421 0 1 1 .421.422.422.422 0 0 1-.421-.423zm.936 2.4a.42.42 0 0 1-.41-.328.42.42 0 0 1-.016-.112.422.422 0 0 1 .833-.093.45.45 0 0 1 .015.112.422.422 0 0 1-.422.417zm.732-1.395a.421.421 0 1 1 .421-.421.421.421 0 0 1-.421.417zm.421-1.579a.422.422 0 1 1 .421.421.421.421 0 0 1-.421-.425zm.665 3.676a.421.421 0 0 1-.411-.328.42.42 0 0 1-.015-.112.421.421 0 0 1 .832-.093.4.4 0 0 1 .015.112.421.421 0 0 1-.422.417zm.178-1.448a.421.421 0 0 1-.411-.328.42.42 0 0 1-.015-.112.421.421 0 0 1 .832-.093.42.42 0 0 1 .015.112.421.421 0 0 1-.421.417Zm.838-1.176a.4211.4211 0 0 1-.018-.842.33.33 0 0 1 .055 0 .421.421 0 0 1 .017.842.5.5 0 0 1-.054-.004zm4.191-1.837-.006.038a5.634 5.634 0 0 1-1.833 3.277 9 9 0 0 1-1.326.968c-.755.363-1.4-.523-.4-1.118a6.54 6.54 0 0 0 1.8-1.532 3.766 3.766 0 0 0 .726-1.815 6.31 6.31 0 0 0-.189-2.388 21.16 21.16 0 0 0-1.212-2.744l-.661-1.328c-.392-.893.211-1.532.857-.588a2.65 2.65 0 0 1 .29.457c.167.319.182.356.443.878A18.87 18.87 0 0 1 16.4 12.9a7.43 7.43 0 0 1 .208 2.9"/></svg>

<?xml version="1.0" encoding="UTF-8"?>
<svg width="24px" fill="#44739e" height="24px" viewBox="0 0 24 24" version="1.1" xmlns="http://www.w3.org/2000/svg" xmlns:xlink="http://www.w3.org/1999/xlink">
            <path d="M 18.045,13.71 A 36.191,36.191 0 0 0 11.991,2 36.312,36.312 0 0 0 5.958,13.668 6.17,6.17 0 0 0 6.053,17.553 l 0.015,0.04 a 7.011,7.011 0 0 0 1.118,2 6.175,6.175 0 0 0 4.123,2.366 5.677,5.677 0 0 0 0.726,0.037 6.153,6.153 0 0 0 4.806,-2.418 l 0.021,0.022 a 7.605,7.605 0 0 0 1.119,-2.115 6.175,6.175 0 0 0 0.064,-3.775 z M 13.259,9.457 a 0.421,0.421 0 1 1 -0.421,-0.422 0.421,0.421 0 0 1 0.421,0.422 z m 1.608,4.677 a 0.421,0.421 0 0 1 -0.411,-0.328 0.409,0.409 0 0 1 -0.015,-0.112 0.421,0.421 0 0 1 0.832,-0.093 0.415,0.415 0 0 1 0.015,0.112 0.42,0.42 0 0 1 -0.421,0.421 z m 0.421,2.066 a 0.443,0.443 0 1 1 -0.015,-0.112 0.421,0.421 0 0 1 0.015,0.112 z m -0.765,-1.323 a 0.422,0.422 0 1 1 -0.421,-0.421 0.421,0.421 0 0 1 0.421,0.421 z m -3.366,-0.1 a 0.421,0.421 0 1 1 -0.842,0 v -0.019 a 0.421,0.421 0 1 1 0.842,0 z M 8.4,13.52 A 0.422,0.422 0 1 1 8.82,13.1 0.422,0.422 0 0 1 8.4,13.52 Z m 0.392,1.913 A 0.422,0.422 0 1 1 8.371,15.011 0.422,0.422 0 0 1 8.79,15.433 Z M 9.218,13.776 A 0.421,0.421 0 1 1 8.8,14.2 0.42,0.42 0 0 1 9.216,13.776 Z m 0.03,-1.492 a 0.422,0.422 0 1 1 0.421,-0.421 0.422,0.422 0 0 1 -0.423,0.421 z m 0.62,0.456 a 0.421,0.421 0 1 1 -0.422,0.421 0.421,0.421 0 0 1 0.42,-0.421 z m 0,2.761 h 0.049 a 0.422,0.422 0 1 1 0,0.843 H 9.866 a 0.422,0.422 0 1 1 0,-0.843 z m 0.922,-5.3 A 0.422,0.422 0 1 1 11.211,9.779 0.422,0.422 0 0 1 10.788,10.2 Z m 0.533,1.588 a 0.421,0.421 0 1 1 -0.421,-0.421 0.42,0.42 0 0 1 0.419,0.423 z m -0.168,1.782 a 0.421,0.421 0 0 1 0.826,-0.115 0.4,0.4 0 0 1 0.021,0.13 0.421,0.421 0 0 1 -0.827,0.115 0.431,0.431 0 0 1 -0.022,-0.128 z m 0.426,-2.949 a 0.421,0.421 0 1 1 0.421,0.421 0.42,0.42 0 0 1 -0.423,-0.419 z M 12,14.983 A 0.422,0.422 0 1 1 11.579,15.405 0.422,0.422 0 0 1 12,14.983 Z m 0.047,-2.369 A 0.417,0.417 0 0 1 12,12.421 a 0.422,0.422 0 0 1 0.8,-0.183 0.417,0.417 0 0 1 0.047,0.193 0.422,0.422 0 0 1 -0.8,0.183 z m 0.8,1.193 a 0.416,0.416 0 0 1 0.18,0.04 0.421,0.421 0 0 1 -0.143,0.818 0.43,0.43 0 1 1 -0.037,-0.858 z m 0.421,1.807 a 0.421,0.421 0 1 1 -0.421,0.421 0.421,0.421 0 0 1 0.412,-0.421 z M 14.015,17 A 0.422,0.422 0 1 1 13.594,17.422 0.422,0.422 0 0 1 14.015,17 Z M 13.68,13.49 a 0.422,0.422 0 1 1 0.422,-0.422 0.422,0.422 0 0 1 -0.422,0.424 z m -0.421,-1.807 a 0.422,0.422 0 1 1 0.421,-0.421 0.421,0.421 0 0 1 -0.421,0.423 z M 13.011,7.364 A 0.421,0.421 0 1 1 12.59,6.943 0.42,0.42 0 0 1 13.011,7.366 Z M 12.169,5.136 a 0.421,0.421 0 1 1 -0.422,0.421 0.421,0.421 0 0 1 0.422,-0.419 z m 0,3.386 A 0.422,0.422 0 1 1 11.747,8.1 0.422,0.422 0 0 1 12.169,8.524 Z M 11.321,6.372 A 0.421,0.421 0 1 1 10.9,6.8 0.421,0.421 0 0 1 11.321,6.374 Z M 10.366,7.551 A 0.422,0.422 0 1 1 9.945,7.972 0.422,0.422 0 0 1 10.366,7.553 Z m 0,3.386 a 0.421,0.421 0 1 1 -0.421,-0.421 0.42,0.42 0 0 1 0.421,0.423 z M 9.387,8.563 A 0.421,0.421 0 1 1 9.017,9.03 0.421,0.421 0 0 1 9.387,8.563 Z m -0.7,1.325 A 0.421,0.421 0 1 1 8.317,10.355 0.421,0.421 0 0 1 8.688,9.888 Z M 7.875,11.17 a 0.421,0.421 0 1 1 -0.37,0.467 0.421,0.421 0 0 1 0.37,-0.467 z m -0.432,2.687 a 0.421,0.421 0 1 1 -0.421,0.421 0.421,0.421 0 0 1 0.421,-0.421 z m -0.451,2.755 a 0.422,0.422 0 1 1 0.422,0.422 0.422,0.422 0 0 1 -0.422,-0.422 z m 1.121,2.147 a 0.421,0.421 0 1 1 0.421,-0.421 0.421,0.421 0 0 1 -0.421,0.421 z m 0.534,-1.6 a 0.421,0.421 0 1 1 0.421,0.422 0.422,0.422 0 0 1 -0.421,-0.423 z m 0.936,2.4 a 0.42,0.42 0 0 1 -0.41,-0.328 0.415,0.415 0 0 1 -0.016,-0.112 0.422,0.422 0 0 1 0.833,-0.093 0.452,0.452 0 0 1 0.015,0.112 0.422,0.422 0 0 1 -0.422,0.417 z m 0.732,-1.395 a 0.421,0.421 0 1 1 0.421,-0.421 0.421,0.421 0 0 1 -0.421,0.417 z m 0.421,-1.579 a 0.422,0.422 0 1 1 0.421,0.421 0.421,0.421 0 0 1 -0.421,-0.425 z m 0.665,3.676 a 0.421,0.421 0 0 1 -0.411,-0.328 0.415,0.415 0 0 1 -0.015,-0.112 0.421,0.421 0 0 1 0.832,-0.093 0.409,0.409 0 0 1 0.015,0.112 0.421,0.421 0 0 1 -0.422,0.417 z m 0.178,-1.448 A 0.421,0.421 0 0 1 11.168,18.485 0.415,0.415 0 0 1 11.153,18.373 0.421,0.421 0 0 1 11.985,18.28 0.415,0.415 0 0 1 12,18.392 0.421,0.421 0 0 1 11.579,18.809 Z m 0.838,-1.176 a 0.42109619,0.42109619 0 0 1 -0.018,-0.842 0.331,0.331 0 0 1 0.055,0 0.4210858,0.4210858 0 0 1 0.017,0.842 0.49,0.49 0 0 1 -0.054,-0.004 z m 4.191,-1.837 -0.006,0.038 a 5.634,5.634 0 0 1 -1.833,3.277 9,9 0 0 1 -1.326,0.968 c -0.755,0.363 -1.4,-0.523 -0.4,-1.118 a 6.535,6.535 0 0 0 1.8,-1.532 3.766,3.766 0 0 0 0.726,-1.815 A 6.311,6.311 0 0 0 15.38,13.23 21.158,21.158 0 0 0 14.168,10.486 L 13.507,9.158 C 13.115,8.265 13.718,7.626 14.364,8.57 a 2.654,2.654 0 0 1 0.29,0.457 c 0.167,0.319 0.182,0.356 0.443,0.878 a 18.873,18.873 0 0 1 1.303,2.995 7.432,7.432 0 0 1 0.208,2.9 z"/>

</svg>
